X:142
T:Stick a Pin there
M:6/8
L:1/8
B:Thompson's Compleat Collection of 200 Favourite Country Dances, vol. 1 (London, 1757)
Z:Transcribed and edited by Flynn Titford-Mock, 2007
Z:abc's:AK/Fiddler's Companion
K:G
D|G>Bd c>BA|d>FG A2A|B<GB A>GF|B>d^c d2::A|B>GD E2 G/G/|cAE F2A|
d>BF G>AB|c>Ad {c}B2 B/c/|d>cd e2 A/B/|c>Bc d2d|g>fe d>cB|e>cd G2:|

